Origami/32x32/apps/rocketchat.svg

<svg width="32" height="32" version="1.1" viewBox="0 0 32 32" xmlns="http://www.w3.org/2000/svg">
 <path d="m 1,3 c 1.1805293,1.6527409 2.0312916,4.830053 2.4941406,8.488281 A 15,10 0 0 0 1,17 15,10 0 0 0 3.6347656,22.640625 C 3.2459122,26.244627 2.4000911,29.36656 1,31 5.0690536,31 8.7213304,29.254114 11.279297,26.482422 A 15,10 0 0 0 16,27 15,10 0 0 0 31,17 15,10 0 0 0 16,7 15,10 0 0 0 11.283203,7.5214844 C 8.7250681,4.7474277 5.0710396,3 1,3 Z" style="opacity:.2"/>
 <path d="m15 16c0 7.731986-6.2680134 14-14 14 4.2-4.9 3.5-23.1 0-28 7.7319866 0 14 6.2680132 14 14z" style="fill:#c1272d"/>
 <ellipse cx="16" cy="16" rx="15" ry="10" style="fill:#c1272d"/>
 <path d="m16 8.999562c-3.781842 0-7.1742472 1.04455-9.4980469 2.59375-2.3230735 1.548716-3.5012166 3.45417-3.5019531 5.404297 0.00495 1.408971 0.6263575 2.848155 2.0253906 4.207031a2.0002 2.0002 0 0 1 0.5957032 1.650391c-0.2161339 2.002357-0.5394942 3.872037-1.0703126 5.542969 2.0282053-0.635792 3.8447951-1.740406 5.2578126-3.271485a2.0002 2.0002 0 0 1 1.9062502 -0.595703c1.374405 0.306854 2.826752 0.46595 4.289062 0.46875 3.78019-7.56e-4 7.171183-1.045111 9.494141-2.59375 2.3238-1.5492 3.501953-3.455486 3.501953-5.40625s-1.178153-3.85705-3.501953-5.40625-5.716205-2.59375-9.498047-2.59375z" style="opacity:.2"/>
 <path d="m16 8c-3.781842 0-7.1742472 1.0445502-9.4980469 2.59375-2.3230735 1.548716-3.5012166 3.45417-3.5019531 5.404297 0.0049506 1.408971 0.6263575 2.848155 2.0253906 4.207031a2.0002 2.0002 0 0 1 0.5957032 1.650391c-0.2161339 2.002357-0.5394942 3.872037-1.0703126 5.542969 2.0282053-0.635792 3.8447951-1.740406 5.2578126-3.271485a2.0002 2.0002 0 0 1 1.9062502 -0.595703c1.374405 0.306854 2.826752 0.46595 4.289062 0.46875 3.78019-7.56e-4 7.171183-1.045111 9.494141-2.59375 2.3238-1.5492 3.501953-3.455486 3.501953-5.40625s-1.178153-3.85705-3.501953-5.40625c-2.3238-1.5491998-5.716205-2.59375-9.498047-2.59375z" style="fill:#ffffff"/>
 <path d="m10 15a2 2 0 0 0 -2 2 2 2 0 0 0 2 2 2 2 0 0 0 2 -2 2 2 0 0 0 -2 -2zm6 0a2 2 0 0 0 -2 2 2 2 0 0 0 2 2 2 2 0 0 0 2 -2 2 2 0 0 0 -2 -2zm6 0a2 2 0 0 0 -2 2 2 2 0 0 0 2 2 2 2 0 0 0 2 -2 2 2 0 0 0 -2 -2z" style="opacity:.2"/>
 <path d="m10 14a2 2 0 0 0 -2 2 2 2 0 0 0 2 2 2 2 0 0 0 2 -2 2 2 0 0 0 -2 -2zm6 0a2 2 0 0 0 -2 2 2 2 0 0 0 2 2 2 2 0 0 0 2 -2 2 2 0 0 0 -2 -2zm6 0a2 2 0 0 0 -2 2 2 2 0 0 0 2 2 2 2 0 0 0 2 -2 2 2 0 0 0 -2 -2z" style="fill:#c1272d"/>
 <path d="M 1 2 C 1.2090292 2.2926408 1.4037679 2.6488071 1.5917969 3.03125 C 5.4223373 3.1928422 8.8507329 4.8836992 11.283203 7.5214844 A 15 10 0 0 1 16 7 A 15 10 0 0 1 30.96875 16.585938 A 15 10 0 0 0 31 16 A 15 10 0 0 0 16 6 A 15 10 0 0 0 11.283203 6.5214844 C 8.7250682 3.7474277 5.0710396 2 1 2 z M 3.359375 10.640625 A 15 10 0 0 0 1 16 A 15 10 0 0 0 1.0351562 16.455078 A 15 10 0 0 1 3.4941406 11.488281 C 3.4569429 11.194281 3.4015535 10.927872 3.359375 10.640625 z M 3.5234375 22.519531 C 3.0967448 25.745379 2.284104 28.501878 1 30 C 1.2355148 30 1.4646746 29.974449 1.6972656 29.962891 C 2.6838363 28.210804 3.3159933 25.595096 3.6347656 22.640625 A 15 10 0 0 1 3.5234375 22.519531 z" style="fill:#ffffff;opacity:.2"/>
</svg>

<svg xmlns="http://www.w3.org/2000/svg" width="32" height="32" version="1.1" viewBox="0 0 32 32">
 <path style="opacity:0.2" d="m 1,3 c 1.1805293,1.6527409 2.0312916,4.830053 2.4941406,8.488281 A 15,10 0 0 0 1,17 15,10 0 0 0 3.6347656,22.640625 C 3.2459122,26.244627 2.4000911,29.36656 1,31 5.0690536,31 8.7213304,29.254114 11.279297,26.482422 A 15,10 0 0 0 16,27 15,10 0 0 0 31,17 15,10 0 0 0 16,7 15,10 0 0 0 11.283203,7.5214844 C 8.7250681,4.7474277 5.0710396,3 1,3 Z"/>
 <path style="fill:#c1272d" d="M 15,16 C 15,23.731986 8.7319866,30 1,30 5.2,25.1 4.5,6.8999997 1,2 8.7319866,2 15,8.2680132 15,16 Z"/>
 <ellipse style="fill:#c1272d" cx="16" cy="16" rx="15" ry="10"/>
 <path style="opacity:0.2" d="m 16,8.999562 c -3.781842,0 -7.1742472,1.04455 -9.4980469,2.59375 C 4.1788796,13.142028 3.0007365,15.047482 3,16.997609 c 0.00495,1.408971 0.6263575,2.848155 2.0253906,4.207031 a 2.0002,2.0002 0 0 1 0.5957032,1.650391 C 5.4049599,24.857388 5.0815996,26.727068 4.5507812,28.398 6.5789865,27.762208 8.3955763,26.657594 9.8085938,25.126515 a 2.0002,2.0002 0 0 1 1.9062502,-0.595703 c 1.374405,0.306854 2.826752,0.46595 4.289062,0.46875 3.78019,-7.56e-4 7.171183,-1.045111 9.494141,-2.59375 C 27.821847,20.856612 29,18.950326 29,16.999562 29,15.048798 27.821847,13.142512 25.498047,11.593312 23.174247,10.044112 19.781842,8.999562 16,8.999562 Z"/>
 <path style="fill:#ffffff" d="M 16 8 C 12.218158 8 8.8257528 9.0445502 6.5019531 10.59375 C 4.1788796 12.142466 3.0007365 14.04792 3 15.998047 C 3.0049506 17.407018 3.6263575 18.846202 5.0253906 20.205078 A 2.0002 2.0002 0 0 1 5.6210938 21.855469 C 5.4049599 23.857826 5.0815996 25.727506 4.5507812 27.398438 C 6.5789865 26.762646 8.3955763 25.658032 9.8085938 24.126953 A 2.0002 2.0002 0 0 1 11.714844 23.53125 C 13.089249 23.838104 14.541596 23.9972 16.003906 24 C 19.784096 23.999244 23.175089 22.954889 25.498047 21.40625 C 27.821847 19.85705 29 17.950764 29 16 C 29 14.049236 27.821847 12.14295 25.498047 10.59375 C 23.174247 9.0445502 19.781842 8 16 8 z"/>
 <path style="opacity:0.2" d="m 10,15 a 2,2 0 0 0 -2,2 2,2 0 0 0 2,2 2,2 0 0 0 2,-2 2,2 0 0 0 -2,-2 z m 6,0 a 2,2 0 0 0 -2,2 2,2 0 0 0 2,2 2,2 0 0 0 2,-2 2,2 0 0 0 -2,-2 z m 6,0 a 2,2 0 0 0 -2,2 2,2 0 0 0 2,2 2,2 0 0 0 2,-2 2,2 0 0 0 -2,-2 z"/>
 <path style="fill:#c1272d" d="M 10 14 A 2 2 0 0 0 8 16 A 2 2 0 0 0 10 18 A 2 2 0 0 0 12 16 A 2 2 0 0 0 10 14 z M 16 14 A 2 2 0 0 0 14 16 A 2 2 0 0 0 16 18 A 2 2 0 0 0 18 16 A 2 2 0 0 0 16 14 z M 22 14 A 2 2 0 0 0 20 16 A 2 2 0 0 0 22 18 A 2 2 0 0 0 24 16 A 2 2 0 0 0 22 14 z"/>
 <path style="opacity:0.2;fill:#ffffff" d="M 1 2 C 1.2090292 2.2926408 1.4037679 2.6488071 1.5917969 3.03125 C 5.4223373 3.1928422 8.8507329 4.8836992 11.283203 7.5214844 A 15 10 0 0 1 16 7 A 15 10 0 0 1 30.96875 16.585938 A 15 10 0 0 0 31 16 A 15 10 0 0 0 16 6 A 15 10 0 0 0 11.283203 6.5214844 C 8.7250682 3.7474277 5.0710396 2 1 2 z M 3.359375 10.640625 A 15 10 0 0 0 1 16 A 15 10 0 0 0 1.0351562 16.455078 A 15 10 0 0 1 3.4941406 11.488281 C 3.4569429 11.194281 3.4015535 10.927872 3.359375 10.640625 z M 3.5234375 22.519531 C 3.0967448 25.745379 2.284104 28.501878 1 30 C 1.2355148 30 1.4646746 29.974449 1.6972656 29.962891 C 2.6838363 28.210804 3.3159933 25.595096 3.6347656 22.640625 A 15 10 0 0 1 3.5234375 22.519531 z"/>
</svg>
